mobile_version/build/images/icons/header/search.svg

<svg width="96" height="96" viewBox="0 0 96 96" fill="none" xmlns="http://www.w3.org/2000/svg">
<path fill-rule="evenodd" clip-rule="evenodd" d="M63 37C63 51.3594 51.3594 63 37 63C22.6406 63 11 51.3594 11 37C11 22.6406 22.6406 11 37 11C51.3594 11 63 22.6406 63 37ZM59.9181 63.4537C53.7778 68.778 45.7652 72 37 72C17.67 72 2 56.33 2 37C2 17.67 17.67 2 37 2C56.33 2 72 17.67 72 37C72 45.7652 68.778 53.7778 63.4537 59.9182L65.086 61.5504L69.0401 61.969L94.5477 87.4766L87.4766 94.5477L61.969 69.0401L61.5504 65.086L59.9181 63.4537Z" fill="black"/>
</svg>

<svg width="96" height="96" fill="none" xmlns="http://www.w3.org/2000/svg"><path fill-rule="evenodd" clip-rule="evenodd" d="M63 37c0 14.36-11.64 26-26 26S11 51.36 11 37s11.64-26 26-26 26 11.64 26 26zm-3.082 26.454A34.864 34.864 0 0137 72C17.67 72 2 56.33 2 37S17.67 2 37 2s35 15.67 35 35a34.865 34.865 0 01-8.546 22.918l1.632 1.632 3.954.419 25.508 25.508-7.071 7.07L61.969 69.04l-.419-3.954-1.632-1.632z" fill="#000"/></svg>
